X:895
T:Trip To Windsor, The
R:reel
C:Dan R. Macdonald, Cape Breton, Canada
Z:id:hn-reel-895
M:C|
L:1/8
K:A
~A3B Acea | ~f3e fefg | agfe fgaf |1 ecBc AFEF :|2 ecBd cAAc ||
|: efec efae | faec BAcB | AFEC EFAE | FAEC B,A,CB, |
A,2CE FECE | AEcB ABce | agfe fgaf |1 ecBd cAAc :|2 ecBd cAAB ||

